X:3
T:A Scotsman in Mexico
S:Andy Hornby
R:Reel
O:England
N:March 94
M:4/4
C:Andy Hornby
A:Lancaster
K:D
A Bc|\
d3f- fAFA|d3f- fdcd|BGBd gfed|cAce agfe|\
d3f- fAFA|d3f- fdcd|
Bdgf edce|d3d z:|\
|:f af|\
g2ec- cege|f2dA- ADFA|
GABG Ecec|defd Afaf|\
g2ec- cege|f2dA- ADFA|GABE- Ecec|d3d z:|
W:Copyright Andy Hornby
